X:1
T:L'Hymne Européen
T:L.V. Beethoven
%%score 1 2 3
L:1/8
M:4/4
K:Bb
V:1 treble nm="Soprano" snm="S."
V:2 treble nm="Alto" snm="A."
V:3 bass nm="Bass" snm="B."
V:1
|: d2 d2 e2 f2 | f2 e2 d2 c2 | B2 B2 c2 d2 | d3 c c4 | d2 d2 e2 f2 | f2 e2 d2 c2 | B2 B2 c2 d2 | %7
w: 1.Que la joie qui|nous ap- pel- le|nous ac- cueille en|sa clar- té,|que s'é- veil- le|sous son ai- le|l'al- lé- gresse et|
w: 2.Peu- ples des ci-|tés loin- tai- nes|qui ray- on- nent|cha- que soir|Sen- tez vous vos|â- mes plei- nes|d'un ar- dent et|
w: 3.Si l'es- prit vous|il- lu- mi- ne|par- lez- nous à|vo- tre tour|Di- tes nous que|tout che- mi- ne|vers la paix et|
 c3 B B4 | c2 c2 d2 B2 | c2 de d2 B2 | c2 de d2 c2 | B2 c2 F2 d2- | d2 d2 e2 f2 | f2 e2 d2 c2 | %14
w: la beau- té|Plus de hai- ne|sur la _ ter- re|que re- * nais- se|le bon- heur tous|_ les hom- mes|sont des frè- res|
w: noble es- poir|Lut- tez- vous pour|la ju- * sti- ce|ê- tes _ vous dé-|jà vain- queurs Ah|_ qu'un hym- ne|re- ten- tis- se|
w: vers l'a- mour|Di- tes nous que|la na- * tu- re|ne se- * ra que|joie et fleurs et|_ que la ci-|té fu- tu- re|
 B2 B2 c2 d2 | c3 B B4 :| %16
w: quand la joie u-|nit les coeurs.|
w: à vos coeurs mê-|lant nos coeurs.|
w: ou- blie- ra le|temps des pleurs.|
V:2
|: B2 B2 c2 d2 | d2 c2 B2 F2 | D2 D2 F2 B2 | B3 A A4 | B2 B2 c2 d2 | d2 c2 B2 F2 | D2 D2 F2 B2 | %7
w: 1.Que la joie qui|nous ap- pel- le|nous ac- cueille en|sa clar- té|que s'é- veil- le|sous son ai- le|l'al- lé- gresse et|
w: 2.Peu- ples des ci-|tés loin- tai- nes|qui ray- on- nent|cha- que soir|Sen- tez- vous vos|â- mes plei- nes|d'un ar- dent et|
w: 3.Si l'es- prit vous|il- lu- mi- ne|par- lez- nous à|vo- tre tour|Di- tes nous que|tout che- mi- ne|vers la paix et|
 F3 D D4 | F2 A2 B2 B2 | A2 Bc B2 F2 | A2 Bc A2 A2 | G2 =E2 F2 B2- | B2 B2 c2 d2 | d2 c2 B2 F2 | %14
w: la beau- té|Plus de hai- ne|sur la _ ter- re|que re- * nais- se|le bon- heur tous|_ les hom- mes|sont des frè- res|
w: noble es- poir|Lut- tez- vous pour|la ju- i- sti- ce|ê- tes _ vous dé-|jà vain- queurs Ah|_ qu'un hym- ne|re- ten- tis- se|
w: vers l'a- mour|Di- tes nous que|la na- * tu- re|ne se- * ra que|joie et fleurs et|_ que la ci-|té fu- tu- re|
 D2 D2 F2 B2 | F3 D D4 :| %16
w: quand la joie u-|nit les coeurs.|
w: à vos coeurs mê-|lant nos coeurs.|
w: ou- blie- ra le|temps des pleurs.|
V:3
|: B,2 B,2 C2 D2 | D2 C2 B,2 F,2 | D,2 D,2 F,2 B,2 | F,3 F, F,4 | B,2 B,2 C2 D2 | D2 C2 B,2 F,2 | %6
w: 1.Que la joie qui|nous ap- pel- le|nous ac- cueille en|sa clar- té|que s'é- veil- le|sous son ai- le|
w: 2.Peu- ples des ci-|tés loin- tai- nes|qui ray- on- nent|cha- que soir|Sen- tez vous vos|â- mes plei- nes|
w: 3.Si l'es- prit vous|il- lu- mi- ne|par- lez- nous à|vo- tre tour|Di- tes nous que|tout che- mi- ne|
 B,2 B,2 A,2 F,2 | A,3 F, F,4 | F,2 F,2 F,2 F,2 | F,2 F,2 F,2 D,2 | F,2 F,2 ^F,2 D,2 | %11
w: l'al- lé- gresse et|la beau- té|Plus de hai- ne|sur la ter- re|que re- nais- se|
w: d'un ar- dent et|noble es- poir|Lut- tez- vous pour|la ju- sti- ce|ê- tes vous dé-|
w: vers la paix et|vers l'a- mour|Di- tes nous que|la na- tu- re|ne se- ra que|
 D,2 C,2 F,2 F,2- | F,2 F,2 F,2 F,2 | F,2 E,2 D,2 C,2 | F,2 F,2 A,2 F,2 | A,3 F, F,4 :| %16
w: le bon- heur tous|_ les hom- mes|sont des frè- res|quand la joie u-|nit les coeurs.|
w: jà vain- queurs Ah|_ qu'un hym- ne|re- ten- tis- se|à vos coeurs mê-|lant nos coeurs.|
w: joie et fleurs et|_ que la ci-|té fu- tu- re|ou- blie- ra le|temps des pleurs.|

